X:1
T:Ever Faithful, 77.77
T:Ever Faithful, 77.77
T:Arthur Seymour Sullivan (1842-1900)
T:Public Domain Courtesy of the Cyber Hymnal™
C:Arthur Seymour Sullivan (1842-1900)
Z:Public Domain
Z:Courtesy of the Cyber Hymnal™
%%score ( 1 2 ) ( 3 4 )
L:1/8
Q:1/4=115
M:4/4
K:G
V:1 treble 
V:2 treble 
V:3 bass 
V:4 bass 
V:1
 [DG]2 [DG]2 [FA]2 [FA]2 | [GB]2 [Gc]2 [FA]4 | [DB]2 [^DA]2 [EG]2 [=DF]2 | [DE]2 [^CE]2 D4 | %4
 [Gd]3 [Ge] [Gd]2 [Fc]2 | [GB]2 [FA]2 G4 | [EA]2 [EB]2 [Ec]2 [EA]2 | [DF]3 [DF] [DG]4 |] %8
V:2
 x8 | x8 | x8 | x4 D4 | x8 | x4 G4 | x8 | x8 |] %8
V:3
 [G,B,]2 [G,B,]2 [D,D]2 [D,D]2 | [G,D]2 [C,E]2 [D,D]4 | [G,B,]2 [F,B,]2 [E,B,]2 [G,,B,]2 | %3
 [A,,E,]2 [A,,G,]2 [D,F,]4 | [B,D]3 C [B,D]2 [A,D]2 | [G,D]2 [D,C]2 [E,B,]4 | %6
 [C,A,]2 [B,,^G,]2 [A,,A,]2 [C,A,]2 | [D,C]3 [D,C] [G,,B,]4 |] %8
V:4
 x8 | x8 | x8 | x8 | x3 C x4 | x8 | x8 | x8 |] %8

